!!!ONB: mm.25, B: es or ces? (Finale vs Print)
!!!RNB: mm.23: accidentals should be checked
!!!COM: Gaspar van Weerbeke
!!!CDT: ~1450-~1517
!!!OPR: Missa brevis
!!!OTL: Agnus
!!!AGN: Mass
!!!SCT: Gas0201a
!!!SCA: Gas0201a
!!!voices: 4
**kern	**text	**kern	**text	**kern	**text	**kern	**text
*part4	*part4	*part3	*part3	*part2	*part2	*part1	*part1
*staff4	*staff4	*staff3	*staff3	*staff2	*staff2	*staff1	*staff1
*I"Bassus	*	*I"Tenor	*	*I"Altus	*	*I"Superius	*
*I'B	*	*I'T	*	*I'A	*	*I'S	*
*clefF4	*	*clefGv2	*	*clefGv2	*	*clefG2	*
*k[b-]	*	*k[b-]	*	*k[b-]	*	*k[b-]	*
*M2/2	*	*M2/2	*	*M2/2	*	*M2/2	*
*met(C|)	*	*met(C|)	*	*met(C|)	*	*met(C|)	*
=1	=1	=1	=1	=1	=1	=1	=1
1r	.	1r	.	1r	.	4.g	A-
.	.	.	.	.	.	8a	.
.	.	.	.	.	.	8b-yL	.
.	.	.	.	.	.	8ccJ	.
.	.	.	.	.	.	[4b-y	.
=2	=2	=2	=2	=2	=2	=2	=2
1r	.	1r	.	1r	.	4b-]	.
.	.	.	.	.	.	8aL	.
.	.	.	.	.	.	8gJ	.
.	.	.	.	.	.	2b-y	-gnus
=3	=3	=3	=3	=3	=3	=3	=3
*	*	*	*	*	*	*lig	*
1r	.	1r	.	4.d	A-	2.a	De-
.	.	.	.	8e	.	.	.
.	.	.	.	8fL	.	.	.
.	.	.	.	8gJ	.	.	.
.	.	.	.	[4f	.	[4dd	.
=4	=4	=4	=4	=4	=4	=4	=4
1r	.	1r	.	4f]	.	4dd]	.
*	*	*	*	*	*	*Xlig	*
.	.	.	.	8eL	.	8ccL	.
.	.	.	.	8dJ	.	8b-yJ	.
.	.	.	.	2f	-gnus	2a	.
=5	=5	=5	=5	=5	=5	=5	=5
1r	.	4.G	A-	2e	De-	2g	-i,
.	.	8A	.	.	.	.	.
.	.	8B-yL	.	4d	.	2r	.
.	.	8cJ	.	.	.	.	.
.	.	[4B-y	.	[4g	.	.	.
!!LO:LB:g=original
=6	=6	=6	=6	=6	=6	=6	=6
1r	.	4B-]	.	4g]	.	1r	.
.	.	8AL	.	8fL	.	.	.
.	.	8GJ	.	8eJ	.	.	.
.	.	2B-y	-gnus	2g	-i,	.	.
=7	=7	=7	=7	=7	=7	=7	=7
*	*	*	*	*	*edit	*	*
4.D	A-	4A	De-	4.f	qui	2.a	qui
.	.	[2.d	.	.	.	.	.
8E	.	.	.	8g	.	.	.
4F	.	.	.	4a	.	.	.
[4G	.	.	.	4g	.	[4b-y	tol-
=8	=8	=8	=8	=8	=8	=8	=8
4G]	.	4d]	.	4d	.	4b-]	.
8FL	.	4e-i	.	2g	tol-	8aL	.
8E-iJ	.	.	.	.	.	8gJ	.
4G	-gnus	4d	.	.	.	4b-y	.
*	*	*	*	*	*	*lig	*
4A	.	4c	.	4e	.	[4a	.
=9	=9	=9	=9	=9	=9	=9	=9
4F	De-	4d	.	4f	.	4a]	.
4G	.	4B-y	.	2.d	-lis,	2g	.
*	*	*	*	*	*	*Xlig	*
2D	-i,	2A	.	.	.	.	.
.	.	.	.	.	.	4f#i	.
=10	=10	=10	=10	=10	=10	=10	=10
4E-j	qui	2G	-i,	4r	.	2g	-lis
*	*	*	*	*	*Xedit	*	*
2G	tol-	.	.	2B-y	qui	.	.
.	.	2r	.	.	.	2r	.
8FL	.	.	.	8AL	.	.	.
8E-jJ	.	.	.	8GJ	.	.	.
=11	=11	=11	=11	=11	=11	=11	=11
4D	.	1r	.	4B-y	.	1r	.
4F	.	.	.	4.A	tol-	.	.
4E-j	.	.	.	.	.	.	.
.	.	.	.	8G	.	.	.
4C	.	.	.	[4c	.	.	.
!!LO:LB:g=original
=12	=12	=12	=12	=12	=12	=12	=12
2D	.	2r	.	4c]	.	2r	.
.	.	.	.	4Bni	.	.	.
2C	-lis	4r	.	2c	-lis	4.g	pec-
.	.	[4e-i	qui	.	.	.	.
.	.	.	.	.	.	8a	.
=13	=13	=13	=13	=13	=13	=13	=13
1r	.	4e-]	.	1r	.	4b-y	.
.	.	8dL	.	.	.	2cc	-ca-
.	.	8cJ	.	.	.	.	.
.	.	4e-i	.	.	.	.	.
.	.	[4d	tol-	.	.	4b-y	.
=14	=14	=14	=14	=14	=14	=14	=14
1r	.	8dL]	.	1r	.	4a	.
.	.	8cJ	.	.	.	.	.
.	.	2f	.	.	.	4f	.
.	.	.	.	.	.	2g	.
.	.	4e	.	.	.	.	.
=15	=15	=15	=15	=15	=15	=15	=15
4r	.	2f	-lis	4r	.	2f	-ta,
2D	pec-	.	.	2f	pec-	.	.
.	.	2r	.	.	.	2r	.
8CL	.	.	.	8e-iL	.	.	.
8BB-yJ	.	.	.	8dJ	.	.	.
=16	=16	=16	=16	=16	=16	=16	=16
8CL	.	1r	.	8e-iL	.	1r	.
8BB-yJ	.	.	.	8dJ	.	.	.
2E-X	-ca-	.	.	2g	-ca-	.	.
8DL	.	.	.	8fL	.	.	.
8CJ	.	.	.	8e-iJ	.	.	.
!!LO:LB:g=original
=17	=17	=17	=17	=17	=17	=17	=17
2BB-y	-ta	4r	.	2d	-ta:	4r	.
*	*	*	*	*	*	*	*edit
.	.	2B-y	pec-	.	.	2dd	pec-
2r	.	.	.	2r	.	.	.
.	.	8AL	.	.	.	8ccL	.
.	.	8GJ	.	.	.	8b-yJ	.
=18	=18	=18	=18	=18	=18	=18	=18
1r	.	8AL	.	1r	.	8ccL	.
.	.	8GJ	.	.	.	8b-yJ	.
.	.	4.c	-ca-	.	.	2ee-X	-ca-
.	.	8dL	.	.	.	.	.
.	.	8e-i	.	.	.	8ddL	.
.	.	8fJ	.	.	.	8ccJ	.
=19	=19	=19	=19	=19	=19	=19	=19
4r	.	2g	-ta	1r	.	4b-y	-ta
*	*	*	*	*	*	*	*Xedit
4G	mun-	.	.	.	.	2ee-i	mun-
4F	.	4d	mun-	.	.	.	.
4D	.	4f	.	.	.	[4dd	.
=20	=20	=20	=20	=20	=20	=20	=20
2A	-di:	2e	.	4r	.	4dd]	.
.	.	.	.	2a	mi-	4cc#i	.
4r	.	2d	-di:	.	.	2dd	-di:
*	*edit	*	*	*	*	*	*
[4B-y	mi-	.	.	[4f	-se-	.	.
=21	=21	=21	=21	=21	=21	=21	=21
4B-]	.	1r	.	4f]	.	1r	.
8AL	.	.	.	4.d	-re-	.	.
8GJ	.	.	.	.	.	.	.
4B-y	-se-	.	.	.	.	.	.
.	.	.	.	8eL	.	.	.
[4A	-re-	.	.	8f	.	.	.
.	.	.	.	8gJ	.	.	.
=22	=22	=22	=22	=22	=22	=22	=22
8AL]	.	1r	.	8aL	.	1r	.
8GJ	.	.	.	8b-yJ	.	.	.
4.c	-re	.	.	2a	-re	.	.
8B-y	.	.	.	.	.	.	.
4G	.	.	.	[4g	no-	.	.
!!LO:PB:g=original
=23	=23	=23	=23	=23	=23	=23	=23
2A	no-	2r	.	4g]	.	2r	.
.	.	.	.	4f#i	.	.	.
2G	-bis,	4r	.	4.g	-bis,	4r	.
.	.	[4B-y	mi-	.	.	[4dd	mi-
.	.	.	.	8f	.	.	.
=24	=24	=24	=24	=24	=24	=24	=24
4r	.	8B-L]	.	2d	.	4dd]	.
.	.	8c	.	.	.	.	.
*	*Xedit	*	*	*	*	*	*
4G	mi-	8d	.	.	.	8ccL	.
.	.	8eJ	.	.	.	8b-yJ	.
4D	-se-	4f	.	4r	.	4dd	-se-
4E	.	4e	-se-	4g	mi-	[4cc	-re-
=25	=25	=25	=25	=25	=25	=25	=25
4.F	-re-	2c	-re-	4a	-se-	4cc]	.
.	.	.	.	4f	-re-	8b-yL	.
8E-i	.	.	.	.	.	8aJ	.
4C	.	4e-j	.	[2g	-re	4cc	.
*col	*	*	*	*	*	*	*
[4G	-re	[4d	-re	.	.	[4b-y	-re
=26	=26	=26	=26	=26	=26	=26	=26
8GL]	.	4d]	.	4g]	.	4b-]	.
8FJ	.	.	.	.	.	.	.
*Xcol	*	*	*	*	*	*	*
4G	.	8cL	.	2d	no-	8aL	.
.	.	8B-yJ	.	.	.	8gJ	.
4D	no-	4A	.	.	.	4f	.
4E-j	.	4G	.	4c	.	[4g	no-
=27	=27	=27	=27	=27	=27	=27	=27
2D	.	2A	no-	2d	.	4g]	.
.	.	.	.	.	.	4f#i	.
0G	-bis.	0G	-bis.	0d	-bis.	0g	-bis.
!!LO:LB:g=original
=28||	=28||	=28||	=28||	=28||	=28||	=28||	=28||
*M2/2	*	*M2/2	*	*M2/2	*	*M2/2	*
*met(C|)	*	*met(C|)	*	*met(C|)	*	*met(C|)	*
!!LO:TX:a:t=[C2]
2.G	A-	[1B-y	A-	4.g	A-	1r	.
.	.	.	.	8f	.	.	.
.	.	.	.	4d	.	.	.
8FL	.	.	.	4g	.	.	.
8EJ	.	.	.	.	.	.	.
=29	=29	=29	=29	=29	=29	=29	=29
4D	.	2B-]	.	4f	.	1r	.
4G	.	.	.	4b-y	.	.	.
4E	.	[2c	-gnus	8aL	.	.	.
.	.	.	.	8gJ	.	.	.
[4F	-gnus	.	.	[4a	-gnus	.	.
=30	=30	=30	=30	=30	=30	=30	=30
4F]	.	1c]	.	8aL]	.	1r	.
.	.	.	.	8gJ	.	.	.
4G	.	.	.	2g	De-	.	.
2A	De-	.	.	.	.	.	.
.	.	.	.	4f#i	.	.	.
=31	=31	=31	=31	=31	=31	=31	=31
2G	-i,	2d	De-	2.g	-i,	[1b-y	A-
2r	.	4.G	.	.	.	.	.
.	.	.	.	8fL	.	.	.
.	.	8A	.	8eJ	.	.	.
=32	=32	=32	=32	=32	=32	=32	=32
1r	.	4B-y	.	4d	.	2b-]	.
.	.	4G	.	4g	qui	.	.
.	.	4A	.	4e	.	[2cc	-gnus
.	.	[4F	.	[4a	tol-	.	.
=33	=33	=33	=33	=33	=33	=33	=33
2r	.	4F]	.	4a]	.	1cc]	.
.	.	4G	.	8gL	.	.	.
.	.	.	.	8fJ	.	.	.
2C	qui	2A	.	2e	.	.	.
!!LO:LB:g=original
=34	=34	=34	=34	=34	=34	=34	=34
*	*	*col	*	*	*	*	*
2BB-y	tol-	4.B-y	.	4d	.	4.dd	De-
.	.	.	.	4.f	.	.	.
.	.	8A	.	.	.	8cc	.
*	*	*Xcol	*	*	*	*	*
*lig	*	*	*	*	*	*	*
2D	-lis	2F	-i,	.	.	4a	.
.	.	.	.	8e	.	.	.
.	.	.	.	4d	.	4dd	.
=35	=35	=35	=35	=35	=35	=35	=35
2E-X	.	2r	.	8gL	.	4b-y	-i,
.	.	.	.	8f	.	.	.
.	.	.	.	8e-i	.	4.cc	qui
.	.	.	.	8dJ	.	.	.
*Xlig	*	*	*	*	*	*	*
*	*edit	*	*	*	*	*	*
2C	pec-	2c	qui	2e-i	.	.	.
.	.	.	.	.	.	8b-yL	.
.	.	.	.	.	.	8a	.
.	.	.	.	.	.	8gJ	.
=36	=36	=36	=36	=36	=36	=36	=36
*lig	*	*	*	*	*	*	*
2D	-ca-	4.A	tol-	2d	-lis	4.f	.
.	.	8B-y	.	.	.	8g	.
2C	.	8cL	.	4r	.	8aL	.
.	.	8dJ	.	.	.	8b-yJ	.
.	.	4e-i	.	4G	pec-	[4cc	.
*Xlig	*	*	*	*	*	*	*
=37	=37	=37	=37	=37	=37	=37	=37
*lig	*	*	*	*	*	*	*
2G	-ta	4d	.	8B-yL	-ca-	8ccL]	.
.	.	.	.	8c	.	8b-yJ	.
.	.	4B-y	.	8d	.	2b-y	tol-
.	.	.	.	8e-jJ	.	.	.
2F	.	2c	-lis	2f	-ta	.	.
.	.	.	.	.	.	4a	.
*Xlig	*	*	*	*	*	*	*
=38	=38	=38	=38	=38	=38	=38	=38
4.BB-y	mun-	2.B-y	pec-	4.d	mun-	1b-y	-lis
8C	.	.	.	8e-j	.	.	.
4D	.	.	.	4f	.	.	.
[4E-i	.	4G	.	[4g	.	.	.
=39	=39	=39	=39	=39	=39	=39	=39
4E-]	.	4B-y	-ca-	4g]	.	2r	.
8DL	.	4c	-ta	8fL	.	.	.
8CJ	.	.	.	8e-jJ	.	.	.
2BB-y	-di,	2d	mun-	[2f	.	2b-y	pec-
!!LO:LB:g=original
=40	=40	=40	=40	=40	=40	=40	=40
*	*	*lig	*	*	*	*	*
*	*Xedit	*	*	*	*	*	*
1F	pec-	2c	-di,	4f]	.	2a	-ca-
.	.	.	.	8e-jL	.	.	.
.	.	.	.	8dJ	.	.	.
.	.	2A	.	4.c	.	4.cc	.
.	.	.	.	8d	.	8b-y	.
=41	=41	=41	=41	=41	=41	=41	=41
4E-j	-ca-	[1c	.	8e-jL	.	4g	.
.	.	.	.	8d	.	.	.
2F	-ta	.	.	8c	.	2a	-ta
.	.	.	.	8B-yJ	.	.	.
.	.	.	.	4.A	.	.	.
8E-jL	.	.	.	.	.	8gL	.
8DJ	.	.	.	8B-y	.	8fJ	.
=42	=42	=42	=42	=42	=42	=42	=42
4.C	mun-	1c]	.	4c	.	4.e	.
*	*	*Xlig	*	*	*	*	*
.	.	.	.	8B-yL	.	.	.
8D	.	.	.	8AJ	.	8f	.
4E	.	.	.	4G	.	4g	.
4F	.	.	.	4F	.	4a	.
=43	=43	=43	=43	=43	=43	=43	=43
*	*	*lig	*	*	*	*	*
*	*	*	*edit	*	*	*	*
4D	.	2d	pec-	4A	.	4f	.
4G	.	.	.	4G	.	4b-y	.
4E	.	2e	.	4B-y	-di:	4g	.
4A	.	.	.	4A	.	4cc	.
*	*	*Xlig	*	*	*	*	*
=44	=44	=44	=44	=44	=44	=44	=44
4F	.	4f	-ca-	4a	mi-	4a	.
4B-y	.	4d	.	4g	-se-	4.dd	mun-
2A	.	2e	-ta	2a	-re-	.	.
.	.	.	.	.	.	8cc#i	.
.	.	.	.	.	.	4cc#i	.
=45	=45	=45	=45	=45	=45	=45	=45
*	*	*col	*	*	*	*	*
2D	-di:	4.d	mun-	2f	-re	1dd	-di:
.	.	8c	.	.	.	.	.
*	*	*Xcol	*	*	*	*	*
*	*edit	*	*	*	*edit	*	*
*col	*	*	*	*	*	*	*
4.G	mi-	4B-y	.	2d	no-	.	.
.	.	8AL	.	.	.	.	.
8D	-se-	8GJ	.	.	.	.	.
*Xcol	*	*	*	*	*	*	*
!!LO:PB:g=original
=46	=46	=46	=46	=46	=46	=46	=46
4F	-re-	4A	-di:	4c	.	1r	.
2G	.	4G	.	2B-y	.	.	.
.	.	4.d	mi-	.	.	.	.
8FL	.	.	.	8AL	.	.	.
8EJ	.	8e	-se-	8GJ	.	.	.
=47	=47	=47	=47	=47	=47	=47	=47
4D	-re,	4f	-re-	4A	-bis,	2r	.
*	*Xedit	*	*	*	*	*	*
4.G	mi-	4g	-re	4G	.	.	.
.	.	4G	no-	4.d	mi-	2dd	mi-
8F	-se-	.	.	.	.	.	.
4G	-re-	4B-y	.	.	.	.	.
.	.	.	.	8e	-se-	.	.
=48	=48	=48	=48	=48	=48	=48	=48
4A	-re	4A	-bis,	4f	-re-	4cc	-se-
4B-y	.	4G	.	4g	-re	2b-y	-re-
*	*edit	*	*Xedit	*	*	*	*
2G	no-	4.d	mi-	4r	.	.	.
.	.	.	.	[4d	no-	8aL	.
.	.	8e	-se-	.	.	8gJ	.
=49	=49	=49	=49	=49	=49	=49	=49
4D	-bis,	4f	-re-	4d]	.	4a	.
4.G	mi-	4g	-re	4G	-bis,	4g	.
.	.	4G	no-	4.d	mi-	2dd	-re
8F	-se-	.	.	.	.	.	.
4G	-re-	4B-y	.	.	.	.	.
.	.	.	.	8e	-se-	.	.
=50	=50	=50	=50	=50	=50	=50	=50
4A	-re	4A	.	4f	-re-	4cc	.
4B-y	.	4G	.	4g	-re	4.b-y	no-
*	*Xedit	*	*	*	*	*	*
2G	no-	4B-y	.	4r	.	.	.
.	.	.	.	.	.	8a	.
*	*	*	*	*	*Xedit	*	*
.	.	4c	.	4G	no-	4g	.
=51	=51	=51	=51	=51	=51	=51	=51
*	*	*	*	*lig	*	*	*
[1D	-bis.	[1d	-bis.	2A	.	[1f	-bis.
.	.	.	.	2B-y	.	.	.
*	*	*	*	*Xlig	*	*	*
=52	=52	=52	=52	=52	=52	=52	=52
0D]	.	0d]	.	0A	-bis.	0f]	.
!!LO:LB:g=original
=53||	=53||	=53||	=53||	=53||	=53||	=53||	=53||
*M3/2	*	*M3/2	*	*M3/2	*	*M3/2	*
*met(O)	*	*met(O)	*	*met(O)	*	*met(O)	*
!!LO:TX:t=[whole]=[whole-dot]
1D	A-	1.r	.	1.r	.	1.r	.
2E	-gnus	.	.	.	.	.	.
=54	=54	=54	=54	=54	=54	=54	=54
1F	De-	1.r	.	1A	A-	1.r	.
2D	-i,	.	.	2B-y	-gnus	.	.
=55	=55	=55	=55	=55	=55	=55	=55
*lig	*	*	*	*	*	*	*
*	*edit	*	*	*	*	*	*
2C	A-	1.r	.	2.c	De-	1.r	.
2E	.	.	.	.	.	.	.
.	.	.	.	4B-y	.	.	.
*Xlig	*	*	*	*	*	*	*
2F	-gnus	.	.	2A	-i,	.	.
=56	=56	=56	=56	=56	=56	=56	=56
*	*	*	*	*lig	*	*	*
*	*	*	*	*	*edit	*	*
1G	De-	1G	A-	2G	A-	1.r	.
.	.	.	.	2B-y	.	.	.
*	*	*	*	*Xlig	*	*	*
2F	-i,	2A	-gnus	2c	-gnus	.	.
=57	=57	=57	=57	=57	=57	=57	=57
*lig	*	*	*	*	*	*	*
2D	A-	2.B-y	De-	1d	De-	1.r	.
2BB-y	.	.	.	.	.	.	.
.	.	4A	.	.	.	.	.
*Xlig	*	*	*	*	*	*	*
2C	-gnus	2G	-i,	2e	.	.	.
=58	=58	=58	=58	=58	=58	=58	=58
*	*	*lig	*	*	*	*	*
*	*	*	*edit	*	*	*	*
1D	De-	2F	A-	2.f	.	1.r	.
.	.	2A	.	.	.	.	.
.	.	.	.	4e	.	.	.
*	*	*Xlig	*	*	*	*	*
2G	.	2B-y	-gnus	2d	-i,	.	.
!!LO:LB:g=original
=59	=59	=59	=59	=59	=59	=59	=59
*	*	*	*	*lig	*	*	*
*	*	*	*	*	*Xedit	*	*
1C	-i,	1c	De-	2c	qui	1g	A-
.	.	.	.	2e	.	.	.
*	*	*	*	*Xlig	*	*	*
2r	.	2A	-i,	2f	.	2a	-gnus
=60	=60	=60	=60	=60	=60	=60	=60
*	*	*lig	*	*	*	*	*
*	*Xedit	*	*	*	*	*	*
1G	qui	2G	A-	1g	tol-	1b-y	De-
.	.	2B-y	.	.	.	.	.
*	*	*Xlig	*	*	*	*	*
2E	.	2c	-gnus	2G	.	2g	-i,
=61	=61	=61	=61	=61	=61	=61	=61
*lig	*	*	*	*	*	*	*
*	*	*	*	*	*	*	*edit
2D	tol-	1d	De-	1A	.	2f	A-
*	*	*	*	*	*	*lig	*
2F	.	.	.	.	.	2a	-gnus
*Xlig	*	*	*	*	*	*	*
2G	.	2B-y	.	2G	.	2b-y	.
*	*	*	*	*	*	*Xlig	*
=62	=62	=62	=62	=62	=62	=62	=62
2.A	.	2A	.	1F	-lis,	2.cc	De-
.	.	1c	-i,	.	.	.	.
4G	.	.	.	.	.	4dd	.
*	*	*	*	*	*edit	*	*
2E	.	.	.	2G	qui	2ee	-i,
=63	=63	=63	=63	=63	=63	=63	=63
*	*	*	*Xedit	*	*	*	*Xedit
1D	-lis,	2.d	qui	2A	tol-	2.ff	qui
.	.	.	.	4B-y	.	.	.
.	.	4e	.	4c	.	4ee	.
2r	.	2f	.	2d	.	4dd	.
.	.	.	.	.	.	4cc	.
=64	=64	=64	=64	=64	=64	=64	=64
*	*	*lig	*	*lig	*	*lig	*
2r	.	2g	tol-	2G	.	2b-y	.
*lig	*	*	*	*	*	*	*
*	*edit	*	*	*	*	*	*
*col	*	*	*	*	*	*	*
2D	qui	2f	.	2A	.	2a	.
*	*	*Xlig	*	*Xlig	*	*Xlig	*
2G	.	2g	.	2G	-lis,	4.b-y	tol-
*Xcol	*	*	*	*	*	*	*
.	.	.	.	.	.	8a	.
*Xlig	*	*	*	*	*	*	*
!!LO:LB:g=original
=65	=65	=65	=65	=65	=65	=65	=65
2B-y	tol-	2d	.	2g	qui	1dd	.
1A	.	1e	.	1a	tol-	.	.
.	.	.	.	.	.	2cc#i	.
=66	=66	=66	=66	=66	=66	=66	=66
*	*	*	*	*lig	*	*	*
1B-y	.	1d	-lis	2f	-lis	1dd	-lis
.	.	.	.	2d	.	.	.
*	*	*	*	*Xlig	*	*	*
*	*	*	*	*	*Xedit	*	*
2G	.	2r	.	2e	pec-	2r	.
=67	=67	=67	=67	=67	=67	=67	=67
1D	-lis	1d	pec-	2.f	-ca-	1.r	.
.	.	.	.	4e	.	.	.
2r	.	2e	.	2c	.	.	.
=68	=68	=68	=68	=68	=68	=68	=68
1.r	.	2.f	-ca-	4B-y	.	1.r	.
.	.	.	.	2d	.	.	.
.	.	4e	.	4c	.	.	.
.	.	2c	.	2A	.	.	.
=69	=69	=69	=69	=69	=69	=69	=69
1.r	.	2.d	-ta	2G	-ta	1.r	.
*	*	*	*	*	*edit	*	*
*	*	*	*	*col	*	*	*
.	.	.	.	4.d	mun-	.	.
.	.	4c	.	.	.	.	.
.	.	.	.	8e	.	.	.
*	*	*	*	*Xcol	*	*	*
.	.	2A	.	2f	.	.	.
=70	=70	=70	=70	=70	=70	=70	=70
*	*	*lig	*	*	*	*	*
*	*	*col	*	*	*	*	*
1.r	.	1G	mun-	2g	-di,	1dd	pec-
.	.	.	.	2.b-y	pec-	.	.
.	.	[2B-y	.	.	.	2dd	-ca-
.	.	.	.	4a	.	.	.
=71	=71	=71	=71	=71	=71	=71	=71
1.r	.	2B-]	.	1g	-ca-	2b-y	-ta
.	.	1A	.	.	.	1cc	.
*	*	*Xcol	*	*	*	*	*
.	.	.	.	2f#i	-ta	.	.
*	*	*Xlig	*	*	*	*	*
!!LO:PB:g=original
=72	=72	=72	=72	=72	=72	=72	=72
*	*Xedit	*	*	*	*	*	*
1G	pec-	1G	-di,	2g	mun-	2.b-y	mun-
.	.	.	.	1d	-di,	.	.
.	.	.	.	.	.	4a	.
*	*	*	*edit	*	*	*	*
2B-y	-ca-	2d	mun-	.	.	2f	.
=73	=73	=73	=73	=73	=73	=73	=73
2G	.	2e	.	2B-y	pec-	1b-y	.
1F	-ta	1f	.	1c	-ca-	.	.
.	.	.	.	.	.	2a	.
=74	=74	=74	=74	=74	=74	=74	=74
2G	mun-	1d	-di:	2.B-y	-ta	1.b-y	-di:
1D	-di:	.	.	.	.	.	.
.	.	.	.	4A	.	.	.
.	.	2r	.	2F	.	.	.
=75	=75	=75	=75	=75	=75	=75	=75
*	*	*lig	*	*	*	*	*
*	*edit	*	*Xedit	*	*Xedit	*	*
2BB-y	do-	2f	do-	1B-y	mun-	1.r	.
1C	.	2e-i	.	.	.	.	.
*	*	*Xlig	*	*	*	*	*
.	.	2c	.	2A	.	.	.
=76	=76	=76	=76	=76	=76	=76	=76
*lig	*	*	*	*	*	*	*
2BB-y	-na	1d	-na	1B-y	-di:	1.r	.
2B-y	.	.	.	.	.	.	.
*Xlig	*	*	*	*	*	*	*
2G	.	2B-y	.	2r	.	.	.
=77	=77	=77	=77	=77	=77	=77	=77
*lig	*	*lig	*	*	*	*	*
2A	no-	2c	no-	1.r	.	1.r	.
2F#i	.	2A	.	.	.	.	.
*Xlig	*	*Xlig	*	*	*	*	*
2G	-bis	2G	-bis	.	.	.	.
!!LO:LB:g=original
=78	=78	=78	=78	=78	=78	=78	=78
2.B-y	pa-	2.d	pa-	1.r	.	1.r	.
4A	.	4c	.	.	.	.	.
2G	.	2B-y	.	.	.	.	.
=79	=79	=79	=79	=79	=79	=79	=79
4A	.	1A	.	1.r	.	1.r	.
2F#i	.	.	.	.	.	.	.
4E	.	.	.	.	.	.	.
2G	-cem,	2G	-cem,	.	.	.	.
=80	=80	=80	=80	=80	=80	=80	=80
1.r	.	1.r	.	1b-y	do-	1dd	do-
.	.	.	.	2g	-na	2b-y	-na
=81	=81	=81	=81	=81	=81	=81	=81
*	*	*	*	*	*	*lig	*
1.r	.	1.r	.	2a	no-	2cc	no-
.	.	.	.	2f#i	.	2a	.
*	*	*	*	*	*	*Xlig	*
.	.	.	.	2g	-bis	2g	-bis
=82	=82	=82	=82	=82	=82	=82	=82
*	*	*	*	*	*	*	*edit
1.r	.	1.r	.	2.b-y	pa-	2.dd	pa-
.	.	.	.	4a	.	4cc	.
.	.	.	.	2g	.	2b-y	.
=83	=83	=83	=83	=83	=83	=83	=83
1.r	.	1.r	.	4a	.	1a	.
.	.	.	.	2f#i	.	.	.
.	.	.	.	4e	.	.	.
.	.	.	.	2g	-cem,	2g	-cem,
!!LO:LB:g=original
=84	=84	=84	=84	=84	=84	=84	=84
*	*Xedit	*	*	*	*edit	*	*
1.G	do-	1d	do-	1g	do-	1b-y	do-
.	.	2B-y	-na	2d	-na	2g	-na
=85	=85	=85	=85	=85	=85	=85	=85
*	*	*lig	*	*lig	*	*lig	*
2C	-na	2c	no-	2e-i	no-	2a	no-
2D	no-	2A	.	2d	.	2f	.
*	*	*Xlig	*	*Xlig	*	*Xlig	*
2G	.	2G	-bis	2B-y	-bis,	2b-y	-bis
=86	=86	=86	=86	=86	=86	=86	=86
*	*	*	*	*	*Xedit	*	*Xedit
2.F	-bis	2.c	pa-	1f	do-	2.a	pa-
4E-j	.	4d	.	.	.	4b-y	.
2C	.	2e-j	.	2g	-na	2cc	.
=87	=87	=87	=87	=87	=87	=87	=87
*lig	*	*	*	*	*	*lig	*
2G	pa-	1d	.	4.d	no-	2b-y	.
.	.	.	.	8e-j	.	.	.
2F	.	.	.	2f	.	2.a	.
*Xlig	*	*	*	*	*	*Xlig	*
2G	.	2B-y	.	2d	-bis	.	.
.	.	.	.	.	.	4b-y	.
=88	=88	=88	=88	=88	=88	=88	=88
2C	.	2c	.	2e-j	pa-	1g	.
1D	.	1A	.	1d	.	.	.
.	.	.	.	.	.	2f#i	.
=89	=89	=89	=89	=89	=89	=89	=89
0Gl	-cem.	0Gl	-cem.	0dl	-cem.	0gl	-cem.
==	==	==	==	==	==	==	==
*-	*-	*-	*-	*-	*-	*-	*-
!!!system-decoration: [*]
!!!YEM: ©2016 American Institute of Musicology
!!!RDF**kern: j = editorial accidental, optional, paren up
!!!RDF**kern: i = editorial accidental
!!!RDF**kern: l = terminal long
!!!PTL: Gaspar van Weerbeke: Collected Works. II. Masses, Part 2
!!!PPR: American Institute of Musicology
!!!PC#: Corpus Mensurabilis Musicae 106/II.2
!!!PDT: 2018
!!!PED: Kolb, Paul
!!!YEC: Copyright 2016, Kolb, Paul
!!!YEM: CC-BY-NC 4.0 (https://creativecommons.org/licenses/by-nc/4.0/legalcode)
!!!EED: Zybina, Karina
!!!EEV: 2021/09/15
!!!title: @{OPR} &mdash; @{OTL}
